img/burger-menu__right.svg

<svg width="188" height="442" viewBox="0 0 188 442" fill="none" xmlns="http://www.w3.org/2000/svg">
<g clip-path="url(#clip0_191_1266)">
<path d="M111.559 300.247C105.877 302.331 100.476 305.028 95.3683 308.227C94.6193 308.719 95.508 309.779 96.2569 309.288C101.248 306.134 106.585 303.515 112.15 301.477C112.993 301.19 112.404 299.933 111.559 300.247Z" fill="#EAD1D0"/>
<path d="M123.471 311.021C121.714 317.297 119.406 323.44 116.614 329.342C116.258 330.149 117.566 330.633 117.949 329.828C120.742 323.926 123.022 317.781 124.806 311.507C125.027 310.631 123.72 310.148 123.471 311.021Z" fill="#EAD1D0"/>
<path d="M108.852 283.962C102.735 282.172 96.6472 280.383 90.531 278.592C89.6804 278.347 89.1676 279.643 90.0461 279.892C96.1623 281.682 102.251 283.471 108.367 285.261C109.215 285.535 109.728 284.238 108.852 283.962Z" fill="#EAD1D0"/>
</g>
<g clip-path="url(#clip1_191_1266)">
<path d="M286.73 -12.4605C259.016 -11.4256 231.87 -2.96435 207.988 10.9748C183.644 25.172 162.319 45.2699 147.604 69.3916C139.966 81.9236 134.053 95.9922 133.258 110.786C132.456 125.689 136.892 140.457 143.11 153.877C149.43 167.565 157.983 180.665 169.052 190.997C179.133 200.427 192.073 207.692 206.15 207.987C227.948 208.435 251.653 187.556 243.986 164.559C241.854 158.191 237.724 152.702 232.953 148.058C227.784 143.036 221.672 138.706 215.013 135.9C202.222 130.497 188.485 132.36 176.428 138.729C151.222 152.007 134.831 179.343 128.302 206.364C121.495 234.505 125.299 264.152 136.749 290.588C147.677 315.905 165.214 338.326 187.308 354.888C208.653 370.883 234.413 381.405 261.17 382.838C267.641 383.182 274.188 382.976 280.622 382.266C281.58 382.156 281.393 380.647 280.417 380.781C254.408 383.679 228.22 377.432 205.398 364.841C182.388 352.147 163.027 333.285 149.168 311.029C134.564 287.6 125.737 260.113 126.433 232.357C127.114 204.019 137.82 175.451 157.711 154.988C166.897 145.531 178.52 137.426 191.666 134.887C206.141 132.1 219.711 138.132 230.373 147.699C239.948 156.29 247.067 168.873 242.657 181.913C239.077 192.504 229.612 200.572 219.284 204.26C191.853 214.102 166.729 190.299 153.186 169.082C145.103 156.415 138.623 142.036 135.928 127.18C133.297 112.64 135.533 98.2546 141.352 84.7612C146.919 71.7997 155.106 59.9494 164.28 49.3044C173.156 39.0032 183.239 29.7692 194.255 21.8128C215.97 6.11645 241.309 -4.77871 267.804 -9.01988C274.173 -10.0452 280.576 -10.6644 287.032 -10.9014C287.905 -10.9996 287.7 -12.4854 286.73 -12.4605Z" fill="#EAD1D0"/>
</g>
<defs>
<clipPath id="clip0_191_1266">
<rect x="123.045" y="330.77" width="38" height="49" rx="2" transform="rotate(-174.775 123.045 330.77)" fill="white"/>
</clipPath>
<clipPath id="clip1_191_1266">
<rect x="199.193" width="296" height="290" rx="2" transform="rotate(37.1708 199.193 0)" fill="white"/>
</clipPath>
</defs>
</svg>

<svg width="188" height="442" fill="none" xmlns="http://www.w3.org/2000/svg"><g clip-path="url(#clip0_191_1266)" fill="#EAD1D0"><path d="M111.559 300.247c-5.682 2.084-11.083 4.781-16.19 7.98-.75.492.139 1.552.888 1.061a83.549 83.549 0 0115.893-7.811c.843-.287.254-1.544-.591-1.23zm11.912 10.774a116.124 116.124 0 01-6.857 18.321c-.356.807.952 1.291 1.335.486 2.793-5.902 5.073-12.047 6.857-18.321.221-.876-1.086-1.359-1.335-.486zm-14.619-27.059c-6.117-1.79-12.205-3.579-18.321-5.37-.85-.245-1.363 1.051-.485 1.3 6.116 1.79 12.205 3.579 18.321 5.369.848.274 1.361-1.023.485-1.299z"/></g><g clip-path="url(#clip1_191_1266)"><path d="M286.73-12.46c-27.714 1.034-54.86 9.496-78.742 23.435-24.344 14.197-45.669 34.295-60.384 58.417-7.638 12.532-13.551 26.6-14.346 41.394-.802 14.903 3.634 29.671 9.852 43.091 6.32 13.688 14.873 26.788 25.942 37.12 10.081 9.43 23.021 16.695 37.098 16.99 21.798.448 45.503-20.431 37.836-43.428-2.132-6.368-6.262-11.857-11.033-16.501-5.169-5.022-11.281-9.352-17.94-12.158-12.791-5.403-26.528-3.54-38.585 2.829-25.206 13.278-41.597 40.614-48.126 67.635-6.807 28.141-3.003 57.788 8.447 84.224 10.928 25.317 28.465 47.738 50.559 64.3 21.345 15.995 47.105 26.517 73.862 27.95 6.471.344 13.018.138 19.452-.572.958-.11.771-1.619-.205-1.485-26.009 2.898-52.197-3.349-75.019-15.94-23.01-12.694-42.371-31.556-56.23-53.812-14.604-23.429-23.431-50.916-22.735-78.672.681-28.338 11.387-56.906 31.278-77.369 9.186-9.457 20.809-17.562 33.955-20.101 14.475-2.787 28.045 3.245 38.707 12.812 9.575 8.591 16.694 21.174 12.284 34.214-3.58 10.591-13.045 18.659-23.373 22.347-27.431 9.842-52.555-13.961-66.098-35.178-8.083-12.667-14.563-27.046-17.258-41.902-2.631-14.54-.395-28.925 5.424-42.419 5.567-12.961 13.754-24.812 22.928-35.457a174.3 174.3 0 0129.975-27.491C215.97 6.116 241.309-4.78 267.804-9.02a157.036 157.036 0 0119.228-1.881c.873-.099.668-1.584-.302-1.56z" fill="#EAD1D0"/></g><defs><clipPath id="clip0_191_1266"><rect x="123.045" y="330.77" width="38" height="49" rx="2" transform="rotate(-174.775 123.045 330.77)" fill="#fff"/></clipPath><clipPath id="clip1_191_1266"><rect x="199.193" width="296" height="290" rx="2" transform="rotate(37.17 199.193 0)" fill="#fff"/></clipPath></defs></svg>
